X: 24
T: Ni zenneng wangle meimei wo
L: 1/8
M: 4/8
K: D
f f f [I:setbarnb 1]| 
f e e | 
e d B A | 
[M:3/8]F3 | 
B B B | 
d d B | 
B A F | 
A3 |]

@@@ Tune index: 8898
